X:1
T:Title
%%score { ( 1 3 ) | 2 }
L:1/8
Q:1/4=100
M:6/8
K:Ab
V:1 treble nm="Grand Piano"
V:3 treble 
V:2 bass 
V:1
 [Ac][Ac][Ac] [Ac]2 [Ac] | [ce][ce][ce] [ce]3 | [GB][GB][GB] [GB]2 [Bd] | [df][df][ce] [Ac]3 | %4
w: W.~J.~Kirkpatrick * * * *||||
 [Ac][Ac][Ac] [Ac]2 [Bd] | [ce][ea][eg] [df]3 | [GB][GB][Ac] [ce]2 [Bd] | [Bd][Ac][GB] [Ac]3 | %8
w: ||||
 G,G,[Ac] [Bd]3 | CC[Bd] [ce]3 | eee [=da]2 [eg] | [=df]3 .[Be]3 | [Ac] .[Ac]2 [Gd] .[Gd]2 | %13
w: |||||
 [Ae][ce][B=e] [Af]3 | [cf][ce][Ac] [ce]2 [Bd] | d3[K:bass][K:treble] z3 |] %16
w: |||
V:2
 [A,,E,][A,,E,][A,,E,] [A,,E,]2 [A,,E,] | [A,,A,][A,,A,][A,,A,] [A,,A,]3 | E,E,E, E,2 [E,G,] | %3
 [A,,A,][A,,A,][A,,A,] [A,,E,]3 | [A,,E,][A,,E,][A,,E,] [A,,E,]2 [A,,E,] | %5
 [A,,A,][C,A,][C,A,] [D,A,]3 | E,E,[E,A,] [E,A,]2 [E,A,] | [E,G,]E,E, [A,,E,]3 | %8
 E,E,[E,A,] [E,G,]3 | A,A,[A,B,] A,3 | [G,B,][G,B,][G,B,] [F,B,]2 [E,B,] | [B,,A,]3 .[E,G,]3 | %12
 [A,,E,] .[A,,E,]2 [B,,E,] .[B,,E,]2 | [C,E,][C,A,][C,G,] [D,F,]3 | %14
 [E,A,][E,A,][E,A,] [E,A,]2 [E,A,] | [E,,E,G,B]3 .[A,,E,]3 |] %16
V:3
 x6 | x6 | x6 | x6 | x6 | x6 | x6 | x6 | x6 | x6 | x6 | x6 | x6 | x6 | x6 | %15
 z[K:bass] F,D,[K:treble] .[Ac]3 |] %16

